svgs/avast_secureline.svg

<svg width="192" height="192" viewBox="0 0 192 192" fill="none" xmlns="http://www.w3.org/2000/svg">
<path d="M72.6585 108.634H66.6098C59.9823 108.634 54.6098 114.007 54.6098 120.634V158C54.6098 164.627 59.9823 170 66.6098 170H125.634C132.262 170 137.634 164.627 137.634 158V120.634C137.634 114.007 132.262 108.634 125.634 108.634H119.585M72.6585 108.634H119.585M72.6585 108.634V92.3903C72.6585 79.4318 83.1635 68.9268 96.122 68.9268V68.9268C109.08 68.9268 119.585 79.4318 119.585 92.3903V108.634" stroke="black" stroke-width="12" stroke-linejoin="round"/>
<path d="M96 132V147" stroke="black" stroke-width="12" stroke-linecap="round" stroke-linejoin="round"/>
<path d="M51 40.8971C61.5588 29.3892 77.9387 22 96.3295 22C114.236 22 130.237 29.0054 140.813 39.9972C141.099 40.2943 141.381 40.5942 141.659 40.8971" stroke="black" stroke-width="12" stroke-linecap="round"/>
<path d="M65.439 53.2162C72.7963 45.1975 84.2098 40.0488 97.0244 40.0488C109.502 40.0488 120.651 44.9301 128.021 52.5892C128.22 52.7961 128.416 53.0052 128.61 53.2162" stroke="black" stroke-width="12" stroke-linecap="round"/>
</svg>

<svg width="192" height="192" viewBox="0 0 192 192" fill="none" xmlns="http://www.w3.org/2000/svg"><path d="M72.659 108.634h-6.05c-6.627 0-12 5.373-12 12V158c0 6.627 5.373 12 12 12h59.025c6.628 0 12-5.373 12-12v-37.366c0-6.627-5.372-12-12-12h-6.049m-46.926 0h46.926m-46.926 0V92.39c0-12.958 10.504-23.463 23.463-23.463 12.958 0 23.463 10.505 23.463 23.463v16.244" stroke="#000" stroke-width="12" stroke-linejoin="round"/><path d="M96 132v15" stroke="#000" stroke-width="12" stroke-linecap="round" stroke-linejoin="round"/><path d="M51 40.897C61.559 29.39 77.939 22 96.33 22c17.906 0 33.907 7.005 44.483 17.997.286.297.568.597.846.9" stroke="#000" stroke-width="12" stroke-linecap="round"/><path d="M65.439 53.216c7.357-8.019 18.77-13.167 31.585-13.167 12.478 0 23.627 4.881 30.997 12.54.199.207.395.416.589.627" stroke="#000" stroke-width="12" stroke-linecap="round"/></svg>
